X: 1
T: The Carl Cam' Ower the Croft
T: 8 x 32R 3C (MMM 2)
P: The Carl Cam' Ower the Croft
C: Athole Colln, arr. T. Traub 6-19-2007
R: Reel
M: 4/4
L: 1/8
K: A
E |: "A"A3 e cAce|"G"=g2 d=c B/c/d B=G|"A"A3 e cAce| [1 "A"aefd "E"cecB :| [2 "A"aefd "E"cefg ||
|: "A"aAAB "D7" =cdef|"G"=g=GG=c B/c/d BG|"A"Aa^gb a2 ef/g/| [1 "A"aefd "E"cefg :| [2 "A"aefd cecA |]

